Numix-GalliumOS/48/mimetypes/text-x-dsrc.svg

<?xml version="1.0" encoding="UTF-8" standalone="no"?>
<svg
   xmlns:dc="http://purl.org/dc/elements/1.1/"
   xmlns:cc="http://creativecommons.org/ns#"
   xmlns:rdf="http://www.w3.org/1999/02/22-rdf-syntax-ns#"
   xmlns:svg="http://www.w3.org/2000/svg"
   xmlns="http://www.w3.org/2000/svg"
   xmlns:sodipodi="http://sodipodi.sourceforge.net/DTD/sodipodi-0.dtd"
   xmlns:inkscape="http://www.inkscape.org/namespaces/inkscape"
   width="48"
   viewBox="0 0 48 48"
   height="48"
   id="svg2"
   version="1.1"
   inkscape:version="0.91 r13725"
   sodipodi:docname="text-x-dsrc.svg">
  <metadata
     id="metadata34">
    <rdf:RDF>
      <cc:Work
         rdf:about="">
        <dc:format>image/svg+xml</dc:format>
        <dc:type
           rdf:resource="http://purl.org/dc/dcmitype/StillImage" />
      </cc:Work>
    </rdf:RDF>
  </metadata>
  <defs
     id="defs32" />
  <sodipodi:namedview
     pagecolor="#ffffff"
     bordercolor="#666666"
     borderopacity="1"
     objecttolerance="10"
     gridtolerance="10"
     guidetolerance="10"
     inkscape:pageopacity="0"
     inkscape:pageshadow="2"
     inkscape:window-width="1366"
     inkscape:window-height="713"
     id="namedview30"
     showgrid="false"
     inkscape:zoom="1"
     inkscape:cx="26.307189"
     inkscape:cy="20.445047"
     inkscape:window-x="0"
     inkscape:window-y="28"
     inkscape:window-maximized="1"
     inkscape:current-layer="svg2">
    <inkscape:grid
       type="xygrid"
       id="grid3119" />
  </sodipodi:namedview>
  <path
     style="fill:#2d2d2d;fill-opacity:1"
     d="M 8,1 C 6.9714285,1 6,1.9714285 6,3 l 0,42 c 0,0.971429 1.0285714,2 2,2 l 32,0 c 0.971429,0 2,-1.028571 2,-2 L 42,14 29,1 z"
     id="path4" />
  <path
     style="fill-opacity:.196"
     d="M 29,12 29.0625,12.0625 29.21875,12 29,12 z m 2,2 11,11 0,-11 -11,0 z"
     id="path6" />
  <path
     style="fill:#fff;fill-opacity:.392"
     d="m 29,1 13,13 -11,0 c -0.971429,0 -2,-1.028571 -2,-2 L 29,1 z"
     id="path8" />
  <path
     d="m 32,28 c 0,7.108608 -4.530332,10 -8.000002,10 L 16,38 16,18 23.999998,18 C 27.469668,18 32,20.891392 32,28 Z m -4,0 c 0,-4 -2.000002,-5.999998 -5.333334,-5.999998 L 20,22.000002 20,34 22.666666,34 C 25.999998,34 28,32 28,28 Z"
     style="font-style:normal;font-variant:normal;font-weight:bold;font-stretch:normal;font-size:12.30313683px;line-height:125%;font-family:'Open Sans';-inkscape-font-specification:'Open Sans Bold';letter-spacing:0px;word-spacing:0px;fill:#dcdcdc;fill-opacity:1;stroke:none;stroke-width:1px;stroke-linecap:butt;stroke-linejoin:miter;stroke-opacity:1"
     id="path4161"
     inkscape:connector-curvature="0"
     sodipodi:nodetypes="zcccczzsccsz" />
</svg>

<svg xmlns="http://www.w3.org/2000/svg" viewBox="0 0 48 48">
 <path d="m 8 1 c -1.029 0 -2 0.971 -2 2 l 0 42 c 0 0.971 1.029 2 2 2 l 32 0 c 0.971 0 2 -1.029 2 -2 l 0 -31 -13 -13 z" style="fill:#2d2d2d;fill-opacity:1"/>
 <path d="m 29 12 0.063 0.063 0.156 -0.063 -0.219 0 z m 2 2 11 11 0 -11 -11 0 z" style="fill-opacity:0.196"/>
 <path d="m 29 1 13 13 -11 0 c -0.971 0 -2 -1.029 -2 -2 l 0 -11 z" style="fill:#fff;fill-opacity:0.392"/>
 <path d="m 32 28 c 0 7.109 -4.53 10 -8 10 l -8 0 0 -20 8 0 c 3.47 0 8 2.891 8 10 m -4 0 c 0 -4 -2 -6 -5.333 -6 l -2.667 0 0 12 2.667 0 c 3.333 0 5.333 -2 5.333 -6" style="fill:#dcdcdc;fill-opacity:1;stroke:none"/>
</svg>
